X:1
T:Green Hills of Tyrol [1]
T:Green Hills of Tyrol [1]
T:Rossini
C:Rossini
L:1/8
M:3/4
K:G
V:1 treble 
V:1
 DG A | B2 BGBc | d2 deBe | dcAFAe | dBGDGA | B2 BGB(c | d2) (de)(Be) | dcADFA | (G2 G) z G2 | %9
 g4 fe | ed d z e2 | dc c z d2 | cB B z G2 | g4 fe | ed d z e2 | d^c c z BA | d2 z AfA | e2 eA^cA | %18
 (d2 d)AfA | e2 eG^cA | !fermata!d3 DGA | B2 BGBc | d2 deBe | dcAFAe | dBGDGA | B2 BGBc | d2 deBe | %27
 dcADFA | G2 z FGA | B2 BF^dF | B2 BcBA | G2 GDBD | G2 z FGA | B2 BF^dF | B2 z cBA | (G2 G)DBD | %36
 (G2 G) z G2 || fe | ed d z e2 | dc c z d2 | cB B z GG | g2 f2 e2 | ed d z e | d^c !fermata!c2 c2 | %44
 d2 z2 z2 || %45

